X: 101725
T: Jones' Kerry Reel
T: R\'il Chiarra\'i
S: B.Breathnach:"Ceol Rince na hEireann" IV/112 
Z: B.Black
L: 1/8
M: 4/4
R: reel
K: G
(3DEF|GBAG FGAB|(3dcB (3cBA BEEF|GBAG FGAc|BcAF G2 (3DEF|
GBAG FGAc|BdAc BEEF|G2 BG FGAc|BdAF G2 ||
ef|g2 (3gag f2 (3fgf|efag fddf|g2 g2 a2 a2|bgef g2 de|
gabg fgag|egag fdde|gB (3BBB eA (3AAA|BdcA G2 ||
